actions/32/edit-undo.svg

<svg xmlns="http://www.w3.org/2000/svg" viewBox="0 0 32 32">
  <defs id="defs3051">
    <style type="text/css" id="current-color-scheme">
      .ColorScheme-Text {
        color:#808080;
      }
      </style>
  </defs>
 <path style="fill:currentColor;fill-opacity:1;stroke:none" 
     d="m11 3.5l.707.707-3.793 3.793h8.09c5.523 0 10 4.477 10 10 0 5.523-4.477 10-10 10h-1v-1h1c4.971 0 9-4.03 9-9 0-4.971-4.03-9-9-9h-8.09l3.793 3.793-.707.707-5-5 1-1z"
     class="ColorScheme-Text"
     />
</svg>

<svg xmlns="http://www.w3.org/2000/svg" version="1.1" viewBox="0 0 32 32">
 <defs>
  <style id="current-color-scheme" type="text/css">
   .ColorScheme-Text { color:#808080; }
  </style>
 </defs>
 <path class="ColorScheme-Text" d="M 11,3.5 11.707,4.207 7.914,8 H 16.004 C 21.527,8 26.004,12.477 26.004,18 26.004,23.523 21.527,28 16.004,28 H 15.004 V 27 H 16.004 C 20.975,27 25.004,22.97 25.004,18 25.004,13.029 20.974,9 16.004,9 H 7.914 L 11.707,12.793 11,13.5 6,8.5 7,7.5 Z" style="color:#808080;fill:currentColor"/>
</svg>
